X:1
T:Hark! A Thrilling Voice Is Sounding
T:Text: Latin, c. 6th cent.; tr. Hymns Ancient and Modern, 1861, alt. Tune: William H. Monk, 1850; desc. Psalter Hymnal, 1987
T:87 87 MERTON www.hymnary.org/text/hark_a_thrilling_voice_is_sounding
T:Hark! A Thrilling Voice Is Sounding
T:This hymn is in the public domain. You may freely use this score for personal and congregational worship. If you reproduce the score, please credit Hymnary.org as the source. 
T:This hymn is in the public domain. You may freely use this score for personal and congregational worship. If you reproduce the score, please credit Hymnary.org as the source. 
T:This hymn is in the public domain. You may freely use this score for personal and congregational worship. If you reproduce the score, please credit Hymnary.org as the source. 
Z:This hymn is in the public domain. You may freely use this score for personal and congregational worship. If you reproduce the score, please credit Hymnary.org as the source.
%%score { 1 | ( 2 3 ) } ( 4 5 6 )
L:1/8
M:4/4
K:Eb
V:1 treble nm="SOPRANO ALTO" snm="S. A."
V:2 treble 
V:3 treble 
V:4 bass nm="TENOR BASS" snm="T. B."
V:5 bass 
V:6 bass 
V:1
"^2""^5" B2 B2 f2 f2 | ed c2 c2 B2 | B2 e2 | de f2 | g2 f2 f4 | d2 c2 B2 f2 |1 e2 e2 d2 c2 | %7
w: Star- tled at the|sol- * emn warn- ing,|from the|dark- * ness|we a- rise;|Christ, our sun, all|ill dis- pel- ling,|
w: Hon- or, glo- ry,|might, * do- min- ion|to the|Fa- * ther|and the Son,|with the ev- er-|liv- ing Spir- it|
 c2 =e2 f2 _e2 | e2 d2 e4 |] %9
w: shines up- on the|morn- ing skies.|
w: while e- ter- nal|a- ges run.|
V:2
"^1""^2""^3""^4""^5" E2 G2 B2 B2 | A2 c2 c2 B2 | G2 =A2 | B2 B2 | c2 c2 B4 | B2 A2 G2 B2 |1 %6
w: ||||||
w: ||||||
w: Hark! A thrill- ing|voice is sound- ing!|"Christ is|near," we|hear it say.|"Cast a- way the|
w: Star- tled at the|sol- emn warn- ing,|from the|dark- ness|we a- rise;|Christ, our sun, all|
w: See, the Lamb so|long ex- pect- ed|comes with|par- don|down from heaven.|Let us haste, with|
w: so when next he|comes in glo- ry|and the|world is|wrapped in fear,|he will shield us|
w: Hon- or, glo- ry,|might, do- min- ion|to the|Fa- ther|and the Son,|with the ev- er-|
 A2 G2 F2 E2 | F2 G2 A2 G2 | F2 F2 E4 |] %9
w: |||
w: |||
w: works of dark- ness,|all you chil- dren|of the day!"|
w: ill dis- pel- ling,|shines up- on the|morn- ing skies.|
w: tears of sor- row,|one and all, to|be for- given;|
w: with his mer- cy|and with words of|love draw near.|
w: liv- ing Spir- it|while e- ter- nal|a- ges run.|
V:3
 B,2 B,2 B,2 D2 | E2 E2 E2 E2 | E2 E2 | D2 F2 | G2 FE D4 | D2 EF E2 F2 |1 E2 E2 D2 E2 | %7
 C2 =E2 F2 _E2 | E2 D2 E4 |] %9
V:4
 x8 | x8 | x4 | x4 | x8 | x8 |1 x8 | x8 | x4 E,,4 |] %9
V:5
 G,2 B,2 F,2 F,2 | E,2 A,2 A,2 G,2 | B,2 E,2 | F,2 B,2 | B,2 =A,2 B,4 | D2 CB, B,2 B,2 |1 %6
 C2 B,2 B,2 G,2 | A,2 B,2 C2 B,2 | C2 B,A, G,4 |] %9
V:6
 E,2 E,2 D,2 B,,2 | C,2 A,,B,, C,D, E,2 | E,2 C,2 | B,,2 D,2 | E,2 F,2 B,,4 | B,,2 C,D, E,2 D,2 |1 %6
 C,2 E,2 B,,2 C,2 | A,,2 G,,2 F,,2 G,,2 | A,,2 B,,2 E,4 |] %9

